X:564
%%etbk:tnset id:300,pos:1,rep:3x,ant:
%%etbk:wsite http://thesession.org/tunes/5901
%%etbk:color #ffccbf
%%etbk:pldat 2016-08-18T18:28,2016-08-17T15:47,2016-08-16T15:44,2016-08-15T18:55,2016-08-12T16:12,2016-08-11T18:26,2016-08-10T15:40,2016-08-09T16:02,2016-08-08T18:20,2016-08-06T11:06,2016-08-04T17:58,2016-08-03T15:40,2016-08-02T15:55,2016-03-03T18:59,2016-03-02T16:06,2016-03-01T17:46,2016-02-29T18:35,2016-02-27T13:27,2016-02-26T16:42,2016-02-23T16:32,2016-02-22T18:14,2016-02-17T17:55,2016-02-16T17:42,2016-02-13T15:03,2016-02-10T15:19,2016-02-08T18:27,2016-02-07T14:42,2015-09-10T17:19,2015-08-27T19:01,2015-08-26T16:08,2015-07-31T17:34,2015-07-30T17:59,2015-07-29T15:25,2015-07-22T15:49,2015-07-20T18:22,2015-06-26T16:40,2015-06-24T18:47,2015-06-22T18:45,2015-06-18T18:35,2015-06-17T15:44,2015-06-16T15:26,2015-05-07T18:12,2015-04-16T18:13,2015-04-15T15:32,2015-04-13T18:14,2015-04-12T10:00,2015-04-11T13:34,2015-04-08T16:51,2015-03-19T18:00,2015-03-18T16:10,2015-03-16T18:21,2015-03-15T15:26,2015-03-12T18:01,2015-03-12T17:59,2015-03-10T17:52,2015-03-06T16:54,2015-03-04T15:53,2015-02-22T14:44,2015-02-21T16:00,2015-02-18T16:27,2015-02-17T15:23,2015-02-14T13:44,2015-02-13T18:27,2015-02-12T18:54,2015-02-10T15:48,2015-02-04T15:44,2015-02-03T15:40,2015-02-01T14:36,2015-01-31T15:52,2015-01-26T19:29,2015-01-24T14:18,2015-01-21T17:29,2015-01-14T17:03,2015-01-13T16:40,2015-01-12T18:34,2015-01-10T15:05,2015-01-08T19:04,2015-01-06T17:55,2014-12-27T14:19,2014-12-26T12:05,2014-12-15T15:59,2014-12-09T16:32,2014-11-30T15:21,2014-11-24T13:13,2014-11-12T18:43,2014-10-16T19:07,2014-10-13T18:02,2014-10-11T13:24,2014-09-18T18:00,2014-09-15T18:11,2014-09-14T10:43,2014-09-13T13:27,2014-08-14T19:10,2014-08-13T18:29,2014-08-12T19:03,2014-08-11T19:15,2014-08-10T14:10,2014-08-05T19:02,2014-08-04T18:30,2014-08-03T16:54,2014-08-02T15:32,2014-08-02T15:27,2014-07-29T19:09,2014-07-28T18:21,2014-07-27T16:43,2014-07-26T15:57,2014-07-23T18:17,2014-07-22T19:11,2014-07-21T20:44,2014-07-20T14:18,2014-07-16T18:30,2014-07-14T17:16,2014-07-05T13:16,2014-07-05T13:14,2014-07-02T17:16,2014-06-30T11:28,2014-06-23T18:56,2014-06-20T16:06,2014-06-19T18:58,2014-06-17T18:48,2014-06-15T11:45,2014-06-13T16:15,2014-06-12T18:06,2014-06-11T15:24,2014-06-09T15:07,2014-06-07T15:18,2014-06-05T18:39,2014-06-03T17:50,2014-06-02T19:06,2014-06-01T11:39,2014-05-31T17:07,2014-05-28T14:33,2014-05-23T16:24,2014-05-21T18:37,2014-05-20T15:57,2014-05-17T15:28,2014-05-13T18:06,2014-05-12T18:10,2014-05-08T18:23,2014-05-07T17:19,2014-04-28T19:11,2014-04-24T19:22,2014-04-23T15:45,2014-04-22T19:41,2014-04-22T18:22,2014-04-21T16:35,2014-04-21T13:56,2014-04-20T11:38,2014-04-18T10:40,2014-04-14T10:40,2014-04-12T12:01,2014-04-09T16:25,2014-04-08T18:27,2014-04-07T18:20,2014-04-06T12:00,2014-04-03T19:36,2014-04-02T18:05,2014-04-01T16:33,2014-03-31T18:38,2014-03-30T16:17,2014-03-29T15:38,2014-03-26T16:20,2014-03-25T15:30,2014-03-24T18:03,2014-03-23T14:36,2014-03-22T14:43,2014-03-21T15:47,2014-03-20T18:32,2014-03-19T19:07,2014-03-18T15:13,2014-03-17T18:47,2014-03-16T15:33,2014-03-15T15:41,2014-03-13T18:10,2014-03-12T17:57
T: Homer's
H: Created 2014-03-10 /  Last Modified 2014-12-26
R: reel
M: 4/4
L: 1/8
K: Bmin
|:"bm"!5!f2!4!ed !2!B2!4!e2|"f#m"!3!dB!1!A!2!F !1!E2!2!F!3!A|"bm"!4!B!2!F~F2 !4!B!2!cd!5!f|"f#m"!4!e!1!def a4|
"bm"!5!f2ed B2e2|"f#m"dBAF E2FA|"bm"BF~F2 Bcdf|"f#m"!4!ed!2!BA "bm"B4:|
|:"bm"!3!B2!4!dA !3!B!1!F!2!A!3!B|!5!e!1!def !5!a3!3!f|"f#m"!2!e!1!d!2!B!1!A !2!F3!3!A|!5!d!4!B!3!A!2!F !1!E2!1!F!2!A|
"bm"!3!B!3!B!4!dA BFAB| !5!e!1!def !4!a2!3!f!4!a|!5!b2!4!a!3!f e2!4!a2|"f#m"!3!f!3!e!1!d!2!e "bm"!1!B4:|


